icons/silq.svg

<svg width="16" height="16" viewBox="0 0 16 16" fill="none" xmlns="http://www.w3.org/2000/svg">
<path d="M13.888 4.07669C14.2737 4.52382 13.6688 5.8652 11.8014 7.59233C11.1614 7.04 10.4513 6.49643 9.68851 5.97917C9.33782 5.74246 8.97837 5.52328 8.62768 5.3041C11.2491 3.89258 13.3795 3.48052 13.888 4.07669Z" fill="#32B9DC"/>
<path d="M8.00521 1.48161C8.63645 1.48161 9.31152 2.4986 9.73235 4.07669C9.16248 4.32217 8.58385 4.61149 8.00521 4.93588C7.45288 4.62902 6.86548 4.33094 6.27808 4.07669C6.6989 2.48983 7.36521 1.48161 8.00521 1.48161Z" fill="#00728D"/>
<path d="M2.01722 4.55012C1.99092 4.33971 2.02599 4.1819 2.12243 4.06793C2.26271 3.90135 2.55202 3.81368 2.96408 3.81368C3.91093 3.81368 5.48903 4.27834 7.38274 5.29533C7.02328 5.51451 6.66383 5.73369 6.32191 5.97041C5.5504 6.49644 4.84026 7.04 4.20902 7.58357C2.8238 6.31233 2.1049 5.20766 2.01722 4.55012Z" fill="#0286AA"/>
<path d="M2.11366 11.9321C2.01722 11.8181 1.98215 11.6603 2.00845 11.4499C2.09613 10.7924 2.81503 9.68769 4.20025 8.41645C4.52463 8.697 4.86655 8.97755 5.22601 9.24933C5.27861 10.091 5.39259 10.8625 5.54163 11.5551C3.49011 12.3792 2.41174 12.274 2.11366 11.9321Z" fill="#00728D"/>
<path d="M8.00521 14.5184C7.16356 14.5184 6.18164 12.7387 5.89232 9.73153C6.03259 9.82797 6.17287 9.92441 6.31314 10.0208C7.40904 10.7573 8.59261 11.4236 9.72358 11.9146C9.31152 13.5102 8.63645 14.5184 8.00521 14.5184Z" fill="#0286AA"/>
<path d="M13.888 11.9321C13.2568 12.6685 10.1356 11.8619 6.66383 9.52111C5.90109 9.00385 5.23478 8.49535 4.66492 8.00439C5.23478 7.51343 5.90109 7.00493 6.66383 6.48767C7.11972 6.18082 7.56685 5.90027 8.00521 5.64602C8.4611 5.90903 8.90823 6.18958 9.34659 6.48767C10.1619 7.04 10.9159 7.61863 11.5735 8.20603C13.625 10.0296 14.2913 11.4587 13.888 11.9321Z" fill="#32B9DC"/>
</svg>

<svg xmlns="http://www.w3.org/2000/svg" width="16" height="16" fill="none" viewBox="0 0 16 16"><path fill="#32B9DC" d="M13.888 4.077c.386.447-.22 1.788-2.087 3.515A23 23 0 0 0 9.69 5.98c-.351-.237-.71-.456-1.061-.675 2.621-1.411 4.752-1.823 5.26-1.227"/><path fill="#00728D" d="M8.005 1.482c.631 0 1.307 1.017 1.727 2.595q-.857.37-1.727.859a20 20 0 0 0-1.727-.86c.42-1.586 1.087-2.594 1.727-2.594"/><path fill="#0286AA" d="M2.017 4.55q-.039-.313.105-.482c.14-.167.43-.254.842-.254.947 0 2.525.464 4.419 1.481-.36.22-.72.439-1.061.675a24 24 0 0 0-2.113 1.614C2.824 6.312 2.105 5.208 2.017 4.55"/><path fill="#00728D" d="M2.114 11.932c-.097-.114-.132-.272-.106-.482.088-.658.807-1.762 2.192-3.034.325.281.667.562 1.026.833.053.842.167 1.614.316 2.306-2.052.824-3.13.719-3.428.377"/><path fill="#0286AA" d="M8.005 14.518c-.841 0-1.823-1.78-2.113-4.786l.421.289c1.096.736 2.28 1.403 3.41 1.894-.411 1.595-1.087 2.603-1.718 2.603"/><path fill="#32B9DC" d="M13.888 11.932c-.631.736-3.752-.07-7.224-2.41a22 22 0 0 1-2-1.518c.57-.49 1.237-1 2-1.516q.684-.46 1.341-.842.684.395 1.342.842c.815.552 1.569 1.13 2.226 1.718 2.052 1.824 2.718 3.253 2.315 3.726"/></svg>
